X: 21
T: The Frost Bitten Finger
C: Armand Aromin
H: 1/23/05
M: 2/4
L: 1/8
R: Fling
K: Gmaj
(3DEF || GB AG | EF GD | GB AG | E2 DE |
GB AG | EF GB | cG BG | A2 G2 :|
g2 gd | gd Bd | g2 gf | ga ba |
g2 gd | gd Bd | cG | BG | A2 G2 :|
